X:1
T:Leominster, SMD
T:Leominster, SMD
T:George William Martin, 1862
T:Public Domain Courtesy of the Cyber Hymnal™
C:George William Martin, 1862
Z:Public Domain
Z:Courtesy of the Cyber Hymnal™
%%score ( 1 2 ) ( 3 4 )
L:1/8
Q:1/4=113
M:4/4
K:D
V:1 treble 
V:2 treble 
V:3 bass 
V:4 bass 
V:1
 [DF]2 | [DF]2 [DF]2 [DF]2 [DF]2 | [DG]6 [DG]2 | [DE]2 [DE]2 [DE]2 [DF]2 | [CE]6 [CE]2 | %5
 [DF]2 [DF]2 [EA]2 [EA]2 | [Dd]2 [Fd]2 [Gd]2 [B,D]2 | [A,D]3 [DF] [CF]2 [CE]2 | [A,D]6 D2 | %9
 [DG]3 [DG] [DG]2 D2 | [DF]6 [DF]2 | [FB]3 [FB] [FB]2 F2 | [FA]6 [GA]2 | [Fd]3 [Fd] [Ed]2 [Ec]2 | %14
 [Ec]2 [DB]2 [^DA]2 [EG]2 | [DF]3 D [CF]2 [CE]2 | [A,D]6 |] %17
V:2
 x2 | x8 | x8 | x8 | x8 | x8 | x8 | x8 | x6 D2 | x6 D2 | x8 | x8 | x8 | x8 | x8 | x3 D x4 | x6 |] %17
V:3
 [D,A,]2 | [D,A,]2 [D,A,]2 [D,A,]2 [D,A,]2 | [G,,B,]6 [B,,G,]2 | %3
 [G,,B,]2 [G,,B,]2 [^G,,B,]2 [G,,B,]2 | [A,,E,]6 [A,,A,]2 | [D,A,]2 [D,A,]2 [C,A,]2 [C,E,]2 | %6
 [B,,F,]2 [A,,=C]2 [G,,B,]2 [B,,G,]2 | [A,,F,]3 [A,,A,] [A,,A,]2 [A,,G,]2 | [D,F,]6 [D,F,]2 | %9
 [G,,B,]3 [G,,B,] [G,,B,]2 [B,,G,]2 | [D,A,]6 [D,A,]2 | [B,,D]3 [B,,D] [B,,D]2 [D,B,]2 | %12
 [F,C]6 [E,C]2 | (D2 z) [F,^A,]2 [F,,A,]2 x | [G,,^A,]2 [G,,B,]2 [B,,B,]2 [E,B,]2 | %15
 [A,,A,]3 [A,,F,] [A,,A,]2 [A,,G,]2 | [D,F,]6 |] %17
V:4
 x2 | x8 | x8 | x8 | x8 | x8 | x8 | x8 | x8 | x8 | x8 | x8 | x8 | D,3 ^A,2 D, x2 | x8 | x8 | x6 |] %17

